Origami/32x32/apps/navit.svg

<svg width="32" height="32" version="1" xmlns="http://www.w3.org/2000/svg">
 <path d="m25.9998 27.6v-24.2c0-0.7756-0.624-1.4-1.4-1.4h-18.1998c-0.7756 0-1.4 0.6244-1.4 1.4v24.2c0 0.776 0.6244 1.4 1.4 1.4h18.1998c0.7756 0 1.4-0.6244 1.4-1.4z" style="fill:#4f4f4f"/>
 <path d="m14 5v5h3v-5zm0 9v5h3v-5zm0 9v5h3v-5z" style="opacity:.2"/>
 <path d="m14 4v5h3v-5h-3zm0 9v5h3v-5h-3zm0 9v5h3v-5h-3z" style="fill:#ffffff"/>
 <path d="M 6.4004,2 C 5.6248,2 5,2.6248 5,3.4004 v 1 C 5,3.6248 5.6248,3 6.4004,3 h 18.1998 c 0.775,0 1.4,0.6248 1.4,1.4004 v -1 C 26.0002,2.6248 25.3752,2 24.6002,2 Z" style="fill:#ffffff;opacity:.1"/>
 <path d="m5 27.6v1c0 0.775 0.6248 1.4 1.4004 1.4h18.1998c0.775 0 1.4-0.625 1.4-1.4v-1c0 0.775-0.625 1.4-1.4 1.4h-18.1998c-0.7752 0-1.4-0.625-1.4-1.4z" style="opacity:.2"/>
 <circle cx="24" cy="23" r="8" fill-rule="evenodd" style="fill:#3f8ce6"/>
 <path d="m31.979 23.424a8 8 0 0 1 -7.979 7.576 8 8 0 0 1 -7.979 -7.424 8 8 0 0 0 -0.021 0.424 8 8 0 0 0 8 8 8 8 0 0 0 8 -8 8 8 0 0 0 -0.02148 -0.57617z" fill-rule="evenodd" opacity=".2"/>
 <path d="m23 16v2.101562a5 5 0 0 0 -3.894531 3.898438h-2.105469v2h2.101562a5 5 0 0 0 3.898438 3.894531v2.105469h2v-2.101562a5 5 0 0 0 3.894531 -3.898438h2.105469v-2h-2.101562a5 5 0 0 0 -3.898438 -3.894531v-2.105469h-2zm1 5a2 2 0 0 1 2 2 2 2 0 0 1 -2 2 2 2 0 0 1 -2 -2 2 2 0 0 1 2 -2z" style="fill:#ffffff"/>
</svg>

<svg xmlns="http://www.w3.org/2000/svg" width="32" height="32" version="1">
 <path style="fill:#4f4f4f" d="M 25.9998,27.6 V 3.4 c 0,-0.7756 -0.624,-1.4 -1.4,-1.4 H 6.4 C 5.6244,2 5,2.6244 5,3.4 V 27.6 C 5,28.376 5.6244,29 6.4,29 h 18.1998 c 0.7756,0 1.4,-0.6244 1.4,-1.4 z"/>
 <path style="opacity:0.2" d="m 14,5 v 5 h 3 V 5 Z m 0,9 v 5 h 3 v -5 z m 0,9 v 5 h 3 v -5 z"/>
 <path style="fill:#ffffff" d="M 14 4 L 14 9 L 17 9 L 17 4 L 14 4 z M 14 13 L 14 18 L 17 18 L 17 13 L 14 13 z M 14 22 L 14 27 L 17 27 L 17 22 L 14 22 z"/>
 <path style="opacity:0.1;fill:#ffffff" d="M 6.4004,2 C 5.6248,2 5,2.6248 5,3.4004 v 1 C 5,3.6248 5.6248,3 6.4004,3 h 18.1998 c 0.775,0 1.4,0.6248 1.4,1.4004 v -1 C 26.0002,2.6248 25.3752,2 24.6002,2 Z"/>
 <path style="opacity:0.2" d="m 5,27.6 v 1 C 5,29.375 5.6248,30 6.4004,30 h 18.1998 c 0.775,0 1.4,-0.625 1.4,-1.4 v -1 c 0,0.775 -0.625,1.4 -1.4,1.4 H 6.4004 c -0.7752,0 -1.4,-0.625 -1.4,-1.4 z"/>
 <circle fill-rule="evenodd" style="fill:#3f8ce6" cx="24" cy="23" r="8"/>
 <path fill-rule="evenodd" opacity=".2" d="m31.979 23.424a8 8 0 0 1 -7.979 7.576 8 8 0 0 1 -7.979 -7.424 8 8 0 0 0 -0.021 0.424 8 8 0 0 0 8 8 8 8 0 0 0 8 -8 8 8 0 0 0 -0.02148 -0.57617z"/>
 <path style="fill:#ffffff" d="M 23 16 L 23 18.101562 A 5 5 0 0 0 19.105469 22 L 17 22 L 17 24 L 19.101562 24 A 5 5 0 0 0 23 27.894531 L 23 30 L 25 30 L 25 27.898438 A 5 5 0 0 0 28.894531 24 L 31 24 L 31 22 L 28.898438 22 A 5 5 0 0 0 25 18.105469 L 25 16 L 23 16 z M 24 21 A 2 2 0 0 1 26 23 A 2 2 0 0 1 24 25 A 2 2 0 0 1 22 23 A 2 2 0 0 1 24 21 z"/>
</svg>
